!!!OTL: Die erzwungene Ehe Mein Freund hat mir versprochen etwas:
!!!ARE: Europa, Mitteleuropa, Deutschland / France, Lothringen
!!!YOR: 2, S. 250
!!    1933 gedruckt in Heidelberg
!!!SCT: Q1050E
!!!YEM: Copyright 1995, estate of Helmut Schaffrath.
**kern
*ICvox
*Ivox
*M2/4
*k[b-]
*d:
{8d
=1
8d
8fn
8e
8d
=2
4cn
4cn
=3
8fn
8a
8a
8g
=4
4a
8r}
{8d
=5
8d
8fn
8e
8d
=6
4cn
4cn
=7
8fn
8a
8a
8g
=8
4a}
{8fn
8g
=9
8a
8a
8a
8b-
=10
4a
8g
8fn
=11
4g}
{8g
8b-
=12
4a
8d
8e
=13
4d
8cn
8B-
=14
4cn}
{8e
8g
=15
4fn
8e
8e
=16
4d
8r}
==
!!!AGN: Kilt - Lied
!! Melodievergleich zu Q0050d, anderes Lied. Verzierungen (Vorschlaege)
!!    in den ersten Zeilen. Pause in der 2. Zeile korrigiert.
!!!ONB: ESAC (Essen Associative Code) Database: BALLADE
!!!AMT: simple duple
!!!AIN: vox
!!!EED: Helmut Schaffrath
!!!EEV: 1.0
*-
